picto/chair-lift-left.svg

<svg class="color-immutable" width="24" height="24" viewBox="0 0 24 24" fill="none" xmlns="http://www.w3.org/2000/svg"><g clip-path="url(#a)"><path d="M0 22.5v-21C0 .675.675 0 1.5 0h21c.825 0 1.5.675 1.5 1.5v21c0 .825-.675 1.5-1.5 1.5h-21C.675 24 0 23.325 0 22.5Z" fill="#2D327D"/><path d="M15.788 5.132 3 3v.684l12.788 2.132v-.684ZM17.589 5.432v.684L21 6.685V6l-3.411-.568ZM19.275 17.026v-3.709a1.126 1.126 0 0 0-2.043-.649l-1.859 2.622a.507.507 0 0 0 .825.586l.752-1.059v1.573h-2.062a.75.75 0 0 0-.751.75v3.169a.694.694 0 1 0 1.387 0v-2.531h3a.754.754 0 0 0 .751-.752Z" fill="#fff"/><path d="M17.176 4.5h-.975v3.931l3.824.638v9.456h-3.824v.975H21V8.243l-3.824-.637V4.5Z" fill="#fff"/><path d="M18.014 11.778a1.05 1.05 0 1 0-.001-2.101 1.05 1.05 0 0 0 .001 2.101Z" fill="#fff"/></g><defs><clipPath id="a"><path fill="#fff" d="M0 0h24v24H0z"/></clipPath></defs></svg>

<svg class="color-immutable" width="24" height="24" viewBox="0 0 24 24" fill="none" xmlns="http://www.w3.org/2000/svg"><path d="M0 22.5V1.5C0 0.675 0.675 0 1.5 0H22.5C23.325 0 24 0.675 24 1.5V22.5C24 23.325 23.325 24 22.5 24H1.5C0.675 24 0 23.325 0 22.5Z" fill="#2D327D"/><path d="M15.788 5.132L3 3V3.684L15.788 5.816V5.132Z" fill="white"/><path d="M17.589 5.43201V6.11601L21 6.68501V6.00001L17.589 5.43201Z" fill="white"/><path d="M19.275 17.026V13.317C19.275 12.697 18.77 12.193 18.15 12.193C17.785 12.193 17.443 12.369 17.232 12.668L15.373 15.29C15.313 15.376 15.28 15.478 15.28 15.583C15.28 15.863 15.507 16.09 15.785 16.09C15.95 16.09 16.104 16.009 16.198 15.876L16.95 14.817V16.39H14.888C14.473 16.39 14.137 16.726 14.137 17.14V20.309C14.137 20.692 14.447 21.003 14.831 21.003C15.213 21.003 15.524 20.693 15.524 20.309V17.778H18.524C18.939 17.776 19.275 17.439 19.275 17.026Z" fill="white"/><path d="M17.176 4.5H16.201V8.431L20.025 9.069V18.525H16.201V19.5H21V8.243L17.176 7.606V4.5Z" fill="white"/><path d="M18.014 11.778C18.594 11.778 19.064 11.307 19.064 10.728C19.064 10.148 18.594 9.67799 18.014 9.67799C17.434 9.67799 16.964 10.148 16.964 10.728C16.964 11.307 17.434 11.778 18.014 11.778Z" fill="white"/></svg>
